X: 1867
T: The Shotgun
C:Jim Moir, Melbourne, Vic, Australia
B: australian traditional tunes wiki
M:2/4
L:1/8
R: Set Tune
Q: 1/4=100
K:D
V:1 
F||"D"AA A/G/F/G/|AA A/G/F/G/|Af ed|"G"B3A|"A7"cc c/B/A/B/|cc c/B/A/B/|cB cB|"D"AF "G"GB|
"D"AA A/G/F/G/|AA A/G/F/G/|Af ed|"G"B3A|"A7"cc c/B/A/B/|cc ce/c/|AA Bc|"D"d3||
||A|"D"FA d/A/d/A/|FA d/A/d/A/|FA df|"A7"ec"G"B2|"A7"GB c/B/c/B/|GB c/B/c/B/|GB ce|"A7"cBA2|
"D"FA d/A/d/A/|FA d/A/d/A/|FA df|"A7"ec"G"B2|"A7"GB c/B/c/B/|GB c>B|{ec}AA Bc|"D"d2-d||
% abcbook-tune_id 6342d53a6c8996c3d127fce3


% abcbook-boost 0
% abcbook-tablature 
% abcbook-transpose 
% abcbook-lastupdated 1665324389131
% abcbook-soundfonts 
% abcbook-repeats 1
% NFF Book 2013

